logos/aws-secrets-manager.svg

<?xml version="1.0" encoding="UTF-8"?>
<svg width="256px" height="256px" viewBox="0 0 256 256" version="1.1" xmlns="http://www.w3.org/2000/svg" xmlns:xlink="http://www.w3.org/1999/xlink" preserveAspectRatio="xMidYMid">
    <title>AWS Secrets Manager</title>
    <defs>
        <linearGradient x1="0%" y1="100%" x2="100%" y2="0%" id="linearGradient-1">
            <stop stop-color="#BD0816" offset="0%"></stop>
            <stop stop-color="#FF5252" offset="100%"></stop>
        </linearGradient>
    </defs>
    <g>
        <rect fill="url(#linearGradient-1)" x="0" y="0" width="256" height="256"></rect>
        <path d="M124.032,138.752 C124.032,140.9408 125.8144,142.72 128,142.72 C130.1888,142.72 131.968,140.9408 131.968,138.752 C131.968,136.5632 130.1888,134.784 128,134.784 C125.8144,134.784 124.032,136.5632 124.032,138.752 L124.032,138.752 Z M117.632,138.752 C117.632,133.0336 122.2816,128.384 128,128.384 C133.7184,128.384 138.368,133.0336 138.368,138.752 C138.368,143.3472 135.3472,147.2064 131.2,148.5632 L131.2,156.8 L124.8,156.8 L124.8,148.5632 C120.6528,147.2064 117.632,143.3472 117.632,138.752 L117.632,138.752 Z M156.8,121.6 L99.2,121.6 L99.2,163.2 L156.8,163.2 L156.8,153.6 L147.2,153.6 L147.2,147.2 L156.8,147.2 L156.8,137.6 L147.2,137.6 L147.2,131.2 L156.8,131.2 L156.8,121.6 Z M108.8,115.2 L147.1968,115.2 L147.200001,99.2 C147.2032,90.8288 138.0576,83.2064 128.0128,83.2 L128.0032,83.2 C123.1104,83.2 118.1696,85.0368 114.4416,88.24 C110.8576,91.3184 108.8,95.3152 108.8,99.2032 L108.8,115.2 Z M153.6,99.2032 L153.5968,115.2 L160,115.2 C161.7696,115.2 163.2,116.6336 163.2,118.4 L163.2,166.4 C163.2,168.1664 161.7696,169.6 160,169.6 L96,169.6 C94.2304,169.6 92.8,168.1664 92.8,166.4 L92.8,118.4 C92.8,116.6336 94.2304,115.2 96,115.2 L102.4,115.2 L102.4,99.2 C102.4032,93.4464 105.2704,87.6832 110.2688,83.3856 C115.1424,79.2 121.6032,76.8 128.0032,76.8 L128.0128,76.8 C141.648,76.8064 153.6032,87.2736 153.6,99.2032 L153.6,99.2032 Z M61.4624,176.1568 L66.6496,172.4064 C57.8976,160.3104 53.0592,146.1184 52.4672,131.2 L60.8,131.2 L60.8,124.8 L52.4768,124.8 C53.1136,109.9712 57.9456,95.8624 66.6496,83.8336 L61.4624,80.08 C51.9648,93.2096 46.7168,108.6144 46.0768,124.8 L38.4,124.8 L38.4,131.2 L46.0672,131.2 C46.6624,147.4752 51.9168,162.9632 61.4624,176.1568 L61.4624,176.1568 Z M172.2816,189.4656 C160.2208,198.1952 146.0736,203.0272 131.2,203.6448 L131.2,195.2 L124.8,195.2 L124.8,203.6448 C109.9264,203.0304 95.776,198.1984 83.7088,189.4656 L79.9616,194.6496 C93.12,204.176 108.5696,209.424 124.8,210.0448 L124.8,217.6 L131.2,217.6 L131.2,210.0448 C147.4304,209.424 162.8736,204.176 176.032,194.6496 L172.2816,189.4656 Z M83.7088,66.7712 C95.776,58.0416 109.9264,53.2096 124.8,52.5952 L124.8,60.8 L131.2,60.8 L131.2,52.5952 C146.0736,53.2096 160.2208,58.0416 172.2816,66.7712 L176.032,61.5872 C162.8736,52.064 147.4304,46.816 131.2,46.1952 L131.2,38.4 L124.8,38.4 L124.8,46.1952 C108.5696,46.8128 93.12,52.0608 79.9616,61.5872 L83.7088,66.7712 Z M209.9168,124.8 C209.2768,108.6144 204.0288,93.2096 194.528,80.08 L189.3408,83.8336 C198.048,95.8624 202.88,109.9712 203.5168,124.8 L195.2,124.8 L195.2,131.2 L203.5264,131.2 C202.9312,146.1184 198.096,160.3104 189.3408,172.4064 L194.528,176.1568 C204.0768,162.9632 209.328,147.4752 209.9264,131.2 L217.6,131.2 L217.6,124.8 L209.9168,124.8 Z M180.4352,80.2048 L205.5232,55.1168 L200.9984,50.592 L175.9104,75.68 L180.4352,80.2048 Z M75.5584,176.032 L50.4704,201.12 L54.9952,205.6448 L80.0832,180.5568 L75.5584,176.032 Z M91.7312,87.2096 L44.24,39.7216 L39.7152,44.2464 L87.2064,91.7344 L91.7312,87.2096 Z M173.4176,168.896 L216.2752,211.7536 L211.7504,216.2784 L168.8928,173.4208 L173.4176,168.896 Z" fill="#FFFFFF"></path>
    </g>
</svg>

<svg preserveAspectRatio="xMidYMid" viewBox="0 0 256 256" xmlns="http://www.w3.org/2000/svg">
  <defs>
    <linearGradient id="aws-secrets-manager_svg__a" x1="0%" x2="100%" y1="100%" y2="0%">
      <stop offset="0%" stop-color="#BD0816"/>
      <stop offset="100%" stop-color="#FF5252"/>
    </linearGradient>
  </defs>
  <path fill="url(#aws-secrets-manager_svg__a)" d="M0 0h256v256H0z"/>
  <path fill="#FFF" d="M124.032 138.752A3.973 3.973 0 0 0 128 142.72a3.971 3.971 0 0 0 3.968-3.968 3.971 3.971 0 0 0-3.968-3.968 3.973 3.973 0 0 0-3.968 3.968Zm-6.4 0c0-5.718 4.65-10.368 10.368-10.368s10.368 4.65 10.368 10.368c0 4.595-3.02 8.454-7.168 9.811v8.237h-6.4v-8.237c-4.147-1.357-7.168-5.216-7.168-9.811ZM156.8 121.6H99.2v41.6h57.6v-9.6h-9.6v-6.4h9.6v-9.6h-9.6v-6.4h9.6v-9.6Zm-48-6.4h38.397l.003-16c.003-8.371-9.142-15.994-19.187-16h-.01c-4.893 0-9.833 1.837-13.561 5.04-3.584 3.078-5.642 7.075-5.642 10.963V115.2Zm44.8-15.997-.003 15.997H160a3.2 3.2 0 0 1 3.2 3.2v48a3.2 3.2 0 0 1-3.2 3.2H96a3.2 3.2 0 0 1-3.2-3.2v-48a3.2 3.2 0 0 1 3.2-3.2h6.4v-16c.003-5.754 2.87-11.517 7.869-15.814 4.873-4.186 11.334-6.586 17.734-6.586h.01c13.635.006 25.59 10.474 25.587 22.403Zm-92.138 76.954 5.188-3.75c-8.752-12.097-13.59-26.289-14.183-41.207H60.8v-6.4h-8.323c.637-14.829 5.469-28.938 14.173-40.966l-5.188-3.754c-9.497 13.13-14.745 28.534-15.385 44.72H38.4v6.4h7.667c.595 16.275 5.85 31.763 15.395 44.957Zm110.82 13.309c-12.061 8.73-26.208 13.561-41.082 14.179V195.2h-6.4v8.445c-14.874-.615-29.024-5.447-41.091-14.18l-3.747 5.185c13.158 9.526 28.608 14.774 44.838 15.395v7.555h6.4v-7.555c16.23-.621 31.674-5.869 44.832-15.395l-3.75-5.184ZM83.709 66.77c12.067-8.73 26.217-13.561 41.091-14.176V60.8h6.4v-8.205c14.874.615 29.02 5.447 41.082 14.176l3.75-5.184c-13.158-9.523-28.602-14.771-44.832-15.392V38.4h-6.4v7.795c-16.23.618-31.68 5.866-44.838 15.392l3.747 5.184Zm126.208 58.03c-.64-16.186-5.888-31.59-15.389-44.72l-5.187 3.754c8.707 12.028 13.539 26.137 14.176 40.966H195.2v6.4h8.326c-.595 14.918-5.43 29.11-14.185 41.206l5.187 3.75c9.549-13.193 14.8-28.68 15.398-44.956h7.674v-6.4h-7.683Zm-29.482-44.595 25.088-25.088-4.525-4.525L175.91 75.68l4.525 4.525ZM75.558 176.032 50.47 201.12l4.525 4.525 25.088-25.088-4.525-4.525ZM91.731 87.21 44.24 39.722l-4.525 4.524 47.491 47.488 4.525-4.524Zm81.687 81.686 42.857 42.858-4.525 4.524-42.857-42.857 4.525-4.525Z"/>
</svg>
